SVG_Azure_All/Cost Management.svg

<?xml version="1.0" encoding="UTF-8" standalone="no"?>
<!-- Generated by Microsoft Visio, SVG Export Cost Management.svg Page-1 -->

<svg
   xmlns:dc="http://purl.org/dc/elements/1.1/"
   xmlns:cc="http://creativecommons.org/ns#"
   xmlns:rdf="http://www.w3.org/1999/02/22-rdf-syntax-ns#"
   xmlns:svg="http://www.w3.org/2000/svg"
   xmlns="http://www.w3.org/2000/svg"
   xmlns:sodipodi="http://sodipodi.sourceforge.net/DTD/sodipodi-0.dtd"
   xmlns:inkscape="http://www.inkscape.org/namespaces/inkscape"
   width="0.70860749in"
   height="0.78745502in"
   viewBox="0 0 51.019792 56.697049"
   xml:space="preserve"
   class="st5"
   version="1.1"
   id="svg54"
   sodipodi:docname="Cost Management.svg"
   style="font-size:12px;overflow:visible;color-interpolation-filters:sRGB;fill:none;fill-rule:evenodd;stroke-linecap:square;stroke-miterlimit:3"
   inkscape:version="0.92.5 (2060ec1f9f, 2020-04-08)"><metadata
   id="metadata60"><rdf:RDF><cc:Work
       rdf:about=""><dc:format>image/svg+xml</dc:format><dc:type
         rdf:resource="http://purl.org/dc/dcmitype/StillImage" /></cc:Work></rdf:RDF></metadata><defs
   id="defs58" /><sodipodi:namedview
   pagecolor="#ffffff"
   bordercolor="#666666"
   borderopacity="1"
   objecttolerance="10"
   gridtolerance="10"
   guidetolerance="10"
   inkscape:pageopacity="0"
   inkscape:pageshadow="2"
   inkscape:window-width="640"
   inkscape:window-height="480"
   id="namedview56"
   showgrid="false"
   inkscape:zoom="1.7193066"
   inkscape:cx="34.01556"
   inkscape:cy="23.284312"
   inkscape:window-x="0"
   inkscape:window-y="0"
   inkscape:window-maximized="0"
   inkscape:current-layer="svg54" />
	<style
   type="text/css"
   id="style2">
	<![CDATA[
		.st1 {fill:#57a300;stroke:none;stroke-linecap:butt;stroke-width:12.24}
		.st2 {fill:#b8d432;fill-opacity:0.4;stroke:none;stroke-linecap:butt;stroke-width:12.24}
		.st3 {fill:#ffffff;stroke:none;stroke-linecap:butt;stroke-width:12.24}
		.st4 {fill:#57a300;fill-opacity:0.2;stroke:none;stroke-linecap:butt;stroke-width:12.24}
		.st5 {fill:none;fill-rule:evenodd;font-size:12px;overflow:visible;stroke-linecap:square;stroke-miterlimit:3}
	]]>
	</style>

	<g
   id="g52"
   transform="translate(-12.240154,-12.240775)">
		<title
   id="title4">Page-1</title>
		<g
   id="group6009-1"
   transform="translate(12.24,-34.0157)">
			<title
   id="title6">Cost Management</title>
			<g
   id="group6010-2">
				<title
   id="title8">Sheet.6010</title>
				<g
   id="shape6011-3">
					<title
   id="title10">Sheet.6011</title>
					<path
   d="M 23.86,46.69 1.69,59.22 A 3.33973,3.32296 -180 0 0 0,62.11 v 24.98 a 3.33973,3.32296 -180 0 0 1.69,2.89 l 22.17,12.54 a 3.34205,3.32527 -180 0 0 3.3,0 L 49.33,89.98 a 3.33973,3.32296 -180 0 0 1.69,-2.89 V 62.11 A 3.33973,3.32296 -180 0 0 49.33,59.22 L 27.16,46.69 a 3.34205,3.32527 -180 0 0 -3.3,0 z"
   class="st1"
   id="path12"
   inkscape:connector-curvature="0"
   style="fill:#57a300;stroke:none;stroke-width:12.23999977;stroke-linecap:butt" />
				</g>
				<g
   id="shape6012-5"
   transform="translate(0,-4.46616)">
					<title
   id="title15">Sheet.6012</title>
					<path
   d="m 34.22,55.14 -7.06,-3.98 a 3.34205,3.32527 -180 0 0 -3.3,0 L 1.69,63.69 A 3.33973,3.32296 -180 0 0 0,66.58 v 24.98 a 3.33973,3.32296 -180 0 0 1.69,2.89 l 15.04,8.5 z"
   class="st2"
   id="path17"
   inkscape:connector-curvature="0"
   style="fill:#b8d432;fill-opacity:0.4;stroke:none;stroke-width:12.23999977;stroke-linecap:butt" />
				</g>
				<g
   id="shape6013-7"
   transform="translate(22.1489,-44.6151)">
					<title
   id="title20">Sheet.6013</title>
					<ellipse
   cx="3.36292"
   cy="99.6026"
   rx="3.36292"
   ry="3.34603"
   class="st3"
   id="ellipse22"
   style="fill:#ffffff;stroke:none;stroke-width:12.23999977;stroke-linecap:butt" />
				</g>
				<g
   id="shape6014-9"
   transform="translate(22.1489,-5.38574)">
					<title
   id="title25">Sheet.6014</title>
					<ellipse
   cx="3.36292"
   cy="99.6026"
   rx="3.36292"
   ry="3.34603"
   class="st3"
   id="ellipse27"
   style="fill:#ffffff;stroke:none;stroke-width:12.23999977;stroke-linecap:butt" />
				</g>
				<g
   id="shape6015-11"
   transform="translate(14.2101,-13.3851)">
					<title
   id="title30">Sheet.6015</title>
					<path
   d="m 22.92,94.5 c 0,4.9 -4.88,8.45 -11.6,8.45 -5.91,0 -9.62,-2.22 -11.32,-6.78 l 5.77,-1.08 c 0.75,1.61 2.4,3.44 6.03,3.44 3.63,0 4.99,-2.17 4.99,-3.54 0,-2.85 -3.45,-3.83 -4.94,-4.12 -6.3,-1.25 -10.76,-2.68 -10.76,-9.86 0,-5.89 5.51,-7.98 10.23,-7.98 5.16,0 8.51,1.69 10.25,5.18 l -4.99,1.58 c -1.05,-1.78 -2.83,-2.72 -5.18,-2.72 -3.42,0 -4.32,2.35 -4.32,3.59 0,1.71 1.71,3.21 4.36,3.82 3.33,0.77 5.66,1.36 7.02,1.93 2.16,0.9 4.46,3.5 4.46,8.09 z"
   class="st3"
   id="path32"
   inkscape:connector-curvature="0"
   style="fill:#ffffff;stroke:none;stroke-width:12.23999977;stroke-linecap:butt" />
				</g>
				<g
   id="shape6016-13"
   transform="translate(22.1489,-44.6151)">
					<title
   id="title35">Sheet.6016</title>
					<ellipse
   cx="3.36292"
   cy="99.6026"
   rx="3.36292"
   ry="3.34603"
   class="st4"
   id="ellipse37"
   style="fill:#57a300;fill-opacity:0.2;stroke:none;stroke-width:12.23999977;stroke-linecap:butt" />
				</g>
				<g
   id="shape6017-15"
   transform="translate(22.1489,-5.38574)">
					<title
   id="title40">Sheet.6017</title>
					<ellipse
   cx="3.36292"
   cy="99.6026"
   rx="3.36292"
   ry="3.34603"
   class="st4"
   id="ellipse42"
   style="fill:#57a300;fill-opacity:0.2;stroke:none;stroke-width:12.23999977;stroke-linecap:butt" />
				</g>
				<g
   id="shape6018-17"
   transform="translate(14.2101,-13.3851)">
					<title
   id="title45">Sheet.6018</title>
					<path
   d="m 22.92,94.5 c 0,4.9 -4.88,8.45 -11.6,8.45 -5.91,0 -9.62,-2.22 -11.32,-6.78 l 5.77,-1.08 c 0.75,1.61 2.4,3.44 6.03,3.44 3.63,0 4.99,-2.17 4.99,-3.54 0,-2.85 -3.45,-3.83 -4.94,-4.12 -6.3,-1.25 -10.76,-2.68 -10.76,-9.86 0,-5.89 5.51,-7.98 10.23,-7.98 5.16,0 8.51,1.69 10.25,5.18 l -4.99,1.58 c -1.05,-1.78 -2.83,-2.72 -5.18,-2.72 -3.42,0 -4.32,2.35 -4.32,3.59 0,1.71 1.71,3.21 4.36,3.82 3.33,0.77 5.66,1.36 7.02,1.93 2.16,0.9 4.46,3.5 4.46,8.09 z"
   class="st4"
   id="path47"
   inkscape:connector-curvature="0"
   style="fill:#57a300;fill-opacity:0.2;stroke:none;stroke-width:12.23999977;stroke-linecap:butt" />
				</g>
			</g>
		</g>
	</g>
</svg>

<?xml version="1.0" encoding="UTF-8" standalone="no"?>
<!DOCTYPE svg PUBLIC "-//W3C//DTD SVG 1.1//EN" "http://www.w3.org/Graphics/SVG/1.1/DTD/svg11.dtd">
<!-- Generated by Microsoft Visio, SVG Export Cost Management.svg Page-1 -->
<svg xmlns="http://www.w3.org/2000/svg" xmlns:xlink="http://www.w3.org/1999/xlink" xmlns:ev="http://www.w3.org/2001/xml-events"
		width="1.04866in" height="1.42984in" viewBox="0 0 75.5036 102.949" xml:space="preserve" color-interpolation-filters="sRGB"
		class="st5">
	<style type="text/css">
	<![CDATA[
		.st1 {fill:#57a300;stroke:none;stroke-linecap:butt;stroke-width:12.24}
		.st2 {fill:#b8d432;fill-opacity:0.4;stroke:none;stroke-linecap:butt;stroke-width:12.24}
		.st3 {fill:#ffffff;stroke:none;stroke-linecap:butt;stroke-width:12.24}
		.st4 {fill:#57a300;fill-opacity:0.2;stroke:none;stroke-linecap:butt;stroke-width:12.24}
		.st5 {fill:none;fill-rule:evenodd;font-size:12px;overflow:visible;stroke-linecap:square;stroke-miterlimit:3}
	]]>
	</style>

	<g>
		<title>Page-1</title>
		<g id="group5890-1" transform="translate(12.24,-34.0157)">
			<title>Cost Management</title>
			<g id="group5891-2">
				<title>Sheet.5891</title>
				<g id="shape5892-3">
					<title>Sheet.5892</title>
					<path d="M23.86 46.69 L1.69 59.22 A3.33973 3.32296 -180 0 0 -0 62.11 L0 87.09 A3.33973 3.32296 -180 0 0 1.69
								 89.98 L23.86 102.52 A3.34205 3.32527 -180 0 0 27.16 102.52 L49.33 89.98 A3.33973 3.32296 -180 0
								 0 51.02 87.09 L51.02 62.11 A3.33973 3.32296 -180 0 0 49.33 59.22 L27.16 46.69 A3.34205 3.32527 -180
								 0 0 23.86 46.69 Z" class="st1"/>
				</g>
				<g id="shape5893-5" transform="translate(-2.51799E-13,-4.46616)">
					<title>Sheet.5893</title>
					<path d="M34.22 55.14 L27.16 51.16 A3.34205 3.32527 -180 0 0 23.86 51.16 L1.69 63.69 A3.33973 3.32296 -180 0
								 0 -0 66.58 L0 91.56 A3.33973 3.32296 -180 0 0 1.69 94.45 L16.73 102.95 L34.22 55.14 Z" class="st2"/>
				</g>
				<g id="shape5894-7" transform="translate(22.1489,-44.6151)">
					<title>Sheet.5894</title>
					<ellipse cx="3.36292" cy="99.6026" rx="3.36292" ry="3.34603" class="st3"/>
				</g>
				<g id="shape5895-9" transform="translate(22.1489,-5.38574)">
					<title>Sheet.5895</title>
					<ellipse cx="3.36292" cy="99.6026" rx="3.36292" ry="3.34603" class="st3"/>
				</g>
				<g id="shape5896-11" transform="translate(14.2101,-13.3851)">
					<title>Sheet.5896</title>
					<path d="M22.92 94.5 C22.92 99.4 18.04 102.95 11.32 102.95 C5.41 102.95 1.7 100.73 0 96.17 L5.77 95.09 C6.52
								 96.7 8.17 98.53 11.8 98.53 C15.43 98.53 16.79 96.36 16.79 94.99 C16.79 92.14 13.34 91.16 11.85 90.87
								 C5.55 89.62 1.09 88.19 1.09 81.01 C1.09 75.12 6.6 73.03 11.32 73.03 C16.48 73.03 19.83 74.72 21.57
								 78.21 L16.58 79.79 C15.53 78.01 13.75 77.07 11.4 77.07 C7.98 77.07 7.08 79.42 7.08 80.66 C7.08 82.37
								 8.79 83.87 11.44 84.48 C14.77 85.25 17.1 85.84 18.46 86.41 C20.62 87.31 22.92 89.91 22.92 94.5 Z"
							class="st3"/>
				</g>
				<g id="shape5897-13" transform="translate(22.1489,-44.6151)">
					<title>Sheet.5897</title>
					<ellipse cx="3.36292" cy="99.6026" rx="3.36292" ry="3.34603" class="st4"/>
				</g>
				<g id="shape5898-15" transform="translate(22.1489,-5.38574)">
					<title>Sheet.5898</title>
					<ellipse cx="3.36292" cy="99.6026" rx="3.36292" ry="3.34603" class="st4"/>
				</g>
				<g id="shape5899-17" transform="translate(14.2101,-13.3851)">
					<title>Sheet.5899</title>
					<path d="M22.92 94.5 C22.92 99.4 18.04 102.95 11.32 102.95 C5.41 102.95 1.7 100.73 0 96.17 L5.77 95.09 C6.52
								 96.7 8.17 98.53 11.8 98.53 C15.43 98.53 16.79 96.36 16.79 94.99 C16.79 92.14 13.34 91.16 11.85 90.87
								 C5.55 89.62 1.09 88.19 1.09 81.01 C1.09 75.12 6.6 73.03 11.32 73.03 C16.48 73.03 19.83 74.72 21.57
								 78.21 L16.58 79.79 C15.53 78.01 13.75 77.07 11.4 77.07 C7.98 77.07 7.08 79.42 7.08 80.66 C7.08 82.37
								 8.79 83.87 11.44 84.48 C14.77 85.25 17.1 85.84 18.46 86.41 C20.62 87.31 22.92 89.91 22.92 94.5 Z"
							class="st4"/>
				</g>
			</g>
		</g>
	</g>
</svg>
